img/service-delivery-proccess__05.svg

<svg width="38" height="38" viewBox="0 0 38 38" fill="none" xmlns="http://www.w3.org/2000/svg">
<g clip-path="url(#clip0)">
<path d="M8.29403 26.5971C7.97979 26.3338 7.51169 26.3752 7.24851 26.6895L5.39267 28.9052L4.72196 28.3369C4.4092 28.072 3.94095 28.1107 3.67592 28.4235C3.41096 28.7362 3.4497 29.2045 3.76246 29.4695L5.00265 30.5202C5.13721 30.6342 5.30739 30.6961 5.4824 30.6961C5.50348 30.6961 5.52456 30.6952 5.54571 30.6934C5.74254 30.6765 5.9246 30.582 6.05144 30.4305L8.38658 27.6426C8.64961 27.3284 8.6082 26.8603 8.29403 26.5971Z" fill="white"/>
<path d="M36.4282 15.1493H35.3615C34.4681 15.1081 33.7496 14.3471 32.9182 13.4666C32.3627 12.8782 31.7679 12.2483 31.0514 11.7814V5.43685C31.0514 4.31934 30.1422 3.41016 29.0248 3.41016H4.81657C3.69906 3.41016 2.78996 4.31934 2.78996 5.43685V10.5853C2.78996 10.9952 3.12223 11.3274 3.53214 11.3274C3.94205 11.3274 4.27433 10.9952 4.27433 10.5853V5.43685C4.27433 5.14294 4.52267 4.89453 4.81657 4.89453H13.0295V11.4612C13.0295 11.731 13.176 11.9795 13.4119 12.1104C13.524 12.1725 13.6479 12.2034 13.7717 12.2034C13.9084 12.2034 14.0449 12.1656 14.1651 12.0906L16.9216 10.3677L19.6761 12.0905C19.9049 12.2335 20.1932 12.2412 20.4293 12.1104C20.6654 11.9797 20.8118 11.7311 20.8118 11.4613V4.89453H29.0249C29.3188 4.89453 29.5671 5.14287 29.5671 5.43685V11.1521C29.3257 11.1016 29.0722 11.0712 28.8042 11.0665C28.7998 11.0664 28.7955 11.0664 28.7912 11.0664H26.9109H25.4505H24.6094C24.6055 11.0664 24.6017 11.0664 24.5979 11.0665C23.7032 11.0804 23.2435 11.486 23.0153 11.8237C22.6612 12.348 22.6284 13.0581 22.9226 13.8223C22.9911 14.0007 23.0746 14.1695 23.1708 14.3281H17.5429C16.3337 14.3281 15.3499 15.3119 15.3499 16.521C15.3499 16.7697 15.3915 17.0088 15.4679 17.2318H15.2709C14.0617 17.2318 13.0779 18.2155 13.0779 19.4248C13.0779 20.634 14.0617 21.6178 15.2709 21.6178H15.4673C15.3913 21.8402 15.3498 22.0785 15.3498 22.3264C15.3498 23.4978 16.2712 24.4578 17.4266 24.5185C17.3497 24.7417 17.308 24.9811 17.308 25.2302C17.308 26.4394 18.2918 27.4232 19.501 27.4232H28.6962C29.0129 27.4232 29.3012 27.3844 29.5669 27.3181V29.6437C29.5669 29.9388 29.3186 30.188 29.0247 30.188H11.8334C11.979 29.6695 12.0585 29.1236 12.0585 28.5592C12.0585 25.2345 9.35379 22.5296 6.02916 22.5296C5.41886 22.5296 4.82971 22.6215 4.27411 22.791V17.258C4.27411 16.8481 3.94183 16.5159 3.53192 16.5159C3.12201 16.5159 2.78973 16.8481 2.78973 17.258V23.4778C1.1141 24.5501 0 26.4264 0 28.5593C0 31.8851 2.70475 34.5909 6.02938 34.5909C8.21609 34.5909 10.1344 33.4201 11.1916 31.6724H29.0249C30.1423 31.6724 31.0515 30.7624 31.0515 29.6437V26.5879C31.2154 26.4708 31.372 26.3507 31.524 26.2335C32.1794 25.7285 32.7454 25.2923 33.6467 25.2923H36.4283C37.2949 25.2923 38.0001 24.5881 38.0001 23.7226V16.7212C38 15.8544 37.2949 15.1493 36.4282 15.1493ZM19.3275 10.1216L17.3153 8.86308C17.0746 8.71264 16.7692 8.71257 16.5284 8.86301L14.5139 10.1221V4.89453H19.3275V10.1216ZM6.02938 33.1066C3.52324 33.1066 1.48438 31.0667 1.48438 28.5593C1.48438 26.053 3.52324 24.0141 6.02938 24.0141C8.53553 24.0141 10.5744 26.053 10.5744 28.5593C10.5744 31.0667 8.53553 33.1066 6.02938 33.1066ZM36.5156 23.7226C36.5156 23.7681 36.4748 23.8079 36.4282 23.8079H33.6466C32.2397 23.8079 31.3781 24.4719 30.6178 25.0578C29.979 25.5501 29.4745 25.9389 28.6963 25.9389H19.5011C19.1104 25.9389 18.7926 25.621 18.7926 25.2302C18.7926 24.8395 19.1104 24.5216 19.5011 24.5216H21.9647C22.3747 24.5216 22.7069 24.1893 22.7069 23.7794C22.7069 23.3695 22.3747 23.0372 21.9647 23.0372H17.5429C17.1522 23.0372 16.8344 22.7185 16.8344 22.3265C16.8344 21.9357 17.1523 21.6179 17.5429 21.6179H21.9647C22.3747 21.6179 22.7069 21.2856 22.7069 20.8757C22.7069 20.4658 22.3747 20.1335 21.9647 20.1335H15.271C14.8803 20.1335 14.5624 19.8156 14.5624 19.4249C14.5624 19.0341 14.8803 18.7162 15.271 18.7162H21.9647C22.3747 18.7162 22.7069 18.3839 22.7069 17.974C22.7069 17.5641 22.3747 17.2318 21.9647 17.2318H17.5429C17.1522 17.2318 16.8344 16.913 16.8344 16.5211C16.8344 16.1304 17.1523 15.8126 17.5429 15.8126H25.8243H27.4351H28.5111C28.921 15.8126 29.2533 15.4803 29.2533 15.0704C29.2533 14.6605 28.921 14.3282 28.5111 14.3282H27.4351H25.8243C25.1455 14.3282 24.5504 13.9208 24.3082 13.2898C24.167 12.923 24.2055 12.7138 24.2456 12.6545C24.2858 12.5949 24.4307 12.5544 24.6157 12.5509H26.9109H28.7843C30.0359 12.5759 30.9118 13.5036 31.8391 14.4857C32.8091 15.5131 33.8121 16.5754 35.3176 16.6332C35.327 16.6336 35.3365 16.6337 35.346 16.6337H36.4283C36.4757 16.6337 36.5158 16.6738 36.5158 16.7211V23.7226H36.5156Z" fill="white"/>
<path d="M3.53516 14.6642C3.94507 14.6642 4.27734 14.3298 4.27734 13.9199C4.27734 13.51 3.94507 13.1777 3.53516 13.1777C3.12525 13.1777 2.79297 13.51 2.79297 13.9199V13.9242C2.79297 14.334 3.12525 14.6642 3.53516 14.6642Z" fill="white"/>
</g>
<defs>
<clipPath id="clip0">
<rect width="38" height="38" fill="white"/>
</clipPath>
</defs>
</svg>

<svg width="38" height="38" fill="none" xmlns="http://www.w3.org/2000/svg"><g clip-path="url(#clip0)" fill="#fff"><path d="M8.294 26.597a.742.742 0 00-1.045.092l-1.856 2.216-.671-.568a.742.742 0 00-.96 1.133l1.24 1.05a.742.742 0 001.05-.09l2.335-2.787a.742.742 0 00-.093-1.046z"/><path d="M36.428 15.15h-1.066c-.894-.042-1.612-.803-2.444-1.683-.555-.589-1.15-1.219-1.867-1.686V5.437a2.029 2.029 0 00-2.026-2.027H4.817A2.03 2.03 0 002.79 5.437v5.148a.742.742 0 101.484 0V5.437a.55.55 0 01.543-.542h8.212v6.566a.743.743 0 001.136.63l2.757-1.723 2.754 1.723a.742.742 0 001.136-.63V4.895h8.213a.55.55 0 01.542.542v5.715a4.06 4.06 0 00-.763-.085h-4.206c-.895.013-1.354.419-1.583.757-.354.524-.387 1.234-.092 1.998.068.179.152.348.248.506h-5.628a2.195 2.195 0 00-2.075 2.904h-.197c-1.21 0-2.193.983-2.193 2.193 0 1.209.984 2.193 2.193 2.193h.196a2.197 2.197 0 001.96 2.9 2.196 2.196 0 002.074 2.905h9.195c.317 0 .605-.039.87-.105v2.326a.55.55 0 01-.541.544H11.833a6.015 6.015 0 00.226-1.629 6.036 6.036 0 00-6.03-6.03c-.61 0-1.2.093-1.755.262v-5.533a.742.742 0 00-1.484 0v6.22A6.03 6.03 0 000 28.559a6.037 6.037 0 006.03 6.032 6.031 6.031 0 005.162-2.919h17.833a2.03 2.03 0 002.027-2.028v-3.056c.163-.117.32-.237.472-.355.655-.505 1.221-.94 2.123-.94h2.781c.867 0 1.572-.705 1.572-1.57V16.72c0-.867-.705-1.572-1.572-1.572zm-17.1-5.028l-2.013-1.259a.742.742 0 00-.787 0l-2.014 1.26V4.894h4.814v5.227zM6.029 33.107a4.551 4.551 0 01-4.545-4.548 4.55 4.55 0 014.545-4.545 4.55 4.55 0 014.545 4.545 4.551 4.551 0 01-4.545 4.548zm30.487-9.384a.089.089 0 01-.088.085h-2.781c-1.407 0-2.269.664-3.03 1.25-.638.492-1.143.88-1.92.88H19.5a.71.71 0 010-1.416h2.464a.742.742 0 100-1.485h-4.422a.71.71 0 010-1.42h4.422a.742.742 0 100-1.483H15.27a.71.71 0 010-1.418h6.694a.742.742 0 100-1.484h-4.422a.71.71 0 010-1.42H28.51a.742.742 0 000-1.484h-2.686a1.61 1.61 0 01-1.517-1.038c-.141-.367-.102-.576-.062-.635.04-.06.185-.1.37-.104h4.168c1.252.025 2.128.953 3.055 1.935.97 1.027 1.973 2.09 3.479 2.147h1.11c.048 0 .088.04.088.088v7.002z"/><path d="M3.535 14.664a.744.744 0 000-1.486.742.742 0 00-.742.742v.004c0 .41.332.74.742.74z"/></g><defs><clipPath id="clip0"><path fill="#fff" d="M0 0h38v38H0z"/></clipPath></defs></svg>
